symbols-de/shields/motorway_10x2_z18.svg

<?xml version="1.0" encoding="UTF-8" standalone="no"?>
<svg
   xmlns:dc="http://purl.org/dc/elements/1.1/"
   xmlns:cc="http://creativecommons.org/ns#"
   xmlns:rdf="http://www.w3.org/1999/02/22-rdf-syntax-ns#"
   xmlns:svg="http://www.w3.org/2000/svg"
   xmlns="http://www.w3.org/2000/svg"
   xmlns:sodipodi="http://sodipodi.sourceforge.net/DTD/sodipodi-0.dtd"
   xmlns:inkscape="http://www.inkscape.org/namespaces/inkscape"
   width="100%"
   height="100%"
   viewBox="0 0 81.0 28.0"
   id="svg2"
   version="1.1"
   inkscape:version="0.91 r13725"
   sodipodi:docname="autobahn_10x2_z18.svg">
  <metadata
     id="metadata9">
    <rdf:RDF>
      <cc:Work
         rdf:about="">
        <dc:format>image/svg+xml</dc:format>
        <dc:type
           rdf:resource="http://purl.org/dc/dcmitype/StillImage" />
        <dc:title></dc:title>
      </cc:Work>
    </rdf:RDF>
  </metadata>
  <defs
     id="defs7" />
  <sodipodi:namedview
     pagecolor="#ffffff"
     bordercolor="#666666"
     borderopacity="1"
     objecttolerance="10"
     gridtolerance="10"
     guidetolerance="10"
     inkscape:pageopacity="0"
     inkscape:pageshadow="2"
     inkscape:window-width="1035"
     inkscape:window-height="791"
     id="namedview5"
     showgrid="false"
     inkscape:zoom="4.3580247"
     inkscape:cx="40.5"
     inkscape:cy="14"
     inkscape:window-x="223"
     inkscape:window-y="98"
     inkscape:window-maximized="0"
     inkscape:current-layer="svg2" />
  <path
     style="fill:#365eaf;fill-opacity:1;stroke:#0528a2;stroke-width:1;stroke-miterlimit:4;stroke-dasharray:none;stroke-opacity:1"
     d="m 40.499998,0.50000323 c -0.573473,0 -0.859375,0.003888 -0.859375,0.0137592 L 1.7920679,2.5910386 C 0.93185204,2.6906469 0.49999999,2.841213 0.49999999,3.0404254 c 0,7.3063856 0,14.6127696 0,21.9191536 0,0.199212 0.43185205,0.349784 1.29206791,0.449387 L 39.640623,27.48624 c 0,0.0099 0.285908,0.01376 0.859375,0.01376 0.573478,0 0.859376,-0.0039 0.859376,-0.01376 l 37.848554,-2.077277 c 0.860215,-0.09961 1.292071,-0.250175 1.292071,-0.449387 0,-7.306385 0,-14.612768 0,-21.9191527 0,-0.1992125 -0.431856,-0.349785 -1.292071,-0.449388 L 41.359374,0.51375919 c 0,-0.009936 -0.285907,-0.0137592 -0.859376,-0.0137592 z"
     id="path6"
     inkscape:connector-curvature="0"
     sodipodi:nodetypes="sccccccsccccccs" />
</svg>

<?xml version="1.0" encoding="UTF-8"?>
<svg xmlns="http://www.w3.org/2000/svg" xmlns:xlink="http://www.w3.org/1999/xlink" width="78pt" height="36pt" viewBox="0 0 78 36" version="1.1">
<g id="surface1">
<path style="fill-rule:nonzero;fill:rgb(21.176471%,36.862745%,68.627451%);fill-opacity:1;stroke-width:1;stroke-linecap:butt;stroke-linejoin:miter;stroke:rgb(1.960784%,15.686275%,63.529412%);stroke-opacity:1;stroke-miterlimit:4;" d="M 40.5 0.501302 C 39.928035 0.501302 39.640024 0.50434 39.640024 0.513455 L 1.792969 2.59158 C 0.932993 2.69184 0.498948 2.840712 0.498948 3.041233 C 0.498948 10.34809 0.498948 17.65191 0.498948 24.958767 C 0.498948 25.159288 0.932993 25.30816 1.792969 25.40842 L 39.640024 27.486545 C 39.640024 27.49566 39.928035 27.498698 40.5 27.498698 C 41.071965 27.498698 41.359976 27.49566 41.359976 27.486545 L 79.207031 25.40842 C 80.067007 25.30816 80.501052 25.159288 80.501052 24.958767 C 80.501052 17.65191 80.501052 10.34809 80.501052 3.041233 C 80.501052 2.840712 80.067007 2.69184 79.207031 2.59158 L 41.359976 0.513455 C 41.359976 0.50434 41.071965 0.501302 40.5 0.501302 Z M 40.5 0.501302 " transform="matrix(0.962963,0,0,1.285714,0,0)"/>
</g>
</svg>
